austria/municipalities/70907.svg

<svg xmlns="http://www.w3.org/2000/svg" width="830" height="960" style="shape-rendering:geometricPrecision;text-rendering:geometricPrecision;image-rendering:optimizeQuality;fill-rule:evenodd;clip-rule:evenodd"><path style="opacity:1" fill="#0e0d0d" d="M-.5-.5h5c.167 191.334 0 382.667-.5 574-.589-2.363-2.089-3.363-4.5-3V-.5z"/><path style="opacity:1" d="M4.5-.5h825v598c-8.526 35.427-19.026 70.427-31.5 105l-26 52a1213.562 1213.562 0 0 0-26 39c-20.341 24.348-42.175 47.515-65.5 69.5a33144.509 33144.509 0 0 1-63 43c-8.037 4.35-16.037 8.684-24 13a634.797 634.797 0 0 1-89 30 18.453 18.453 0 0 1-6 .5c-3.512-.555-6.512.112-9 2a228.222 228.222 0 0 1-21 3h-19v4c-.667 0-1 .333-1 1h-57c-3.791-1.484-7.791-2.484-12-3-4.556-1.942-9.556-2.608-15-2a136 136 0 0 1-20-2v-3h-14c-33.368-6.998-65.368-17.665-96-32v-3h-5a3016.16 3016.16 0 0 1-64-38.5 559.15 559.15 0 0 0-15.5-13.5 4.934 4.934 0 0 1-.5-3 8.43 8.43 0 0 1-4-.5 375.989 375.989 0 0 1-23.5-21.5l-34-40a544.98 544.98 0 0 1-33-47 18.437 18.437 0 0 1-.5-6c-1.175.219-2.175-.114-3-1a1323.778 1323.778 0 0 0-20.5-44 1512.746 1512.746 0 0 1-16.5-51c.35-3.659-.65-6.659-3-9a124.236 124.236 0 0 1-3-15c-.09-3.714-1.09-7.048-3-10a159.384 159.384 0 0 0-3-15c-.71-3.525-1.71-6.858-3-10v-19c2.411-.363 3.911.637 4.5 3 .5-191.333.667-382.666.5-574z"/><path style="opacity:1" fill="#0b121e" d="M403.5 19.5h-384v-5h390a18.452 18.452 0 0 1-.5 6c-1.699-.906-3.533-1.24-5.5-1zM809.5 19.5h-384a6.845 6.845 0 0 0-1-4c128.332-1 256.665-1.333 385-1v5z"/><path style="opacity:1" fill="#024cc4" d="M19.5 19.5h384a4435933.88 4435933.88 0 0 1-361 634c-.825.886-1.825 1.219-3 1 .285 1.788-.048 3.455-1 5a1312.513 1312.513 0 0 1-18.5-80c-.5-186.666-.667-373.333-.5-560z"/><path style="opacity:1" fill="#014cc4" d="M425.5 19.5h384v545a191.57 191.57 0 0 1-1.5 31 1547.046 1547.046 0 0 1-18 60 286845.338 286845.338 0 0 0-364.5-636z"/><path style="opacity:1" fill="#0a111d" d="M809.5 19.5h5v545h-5v-545z"/><path style="opacity:1" fill="#413f3c" d="M429.5 166.5h-25c3.776-1.325 7.943-1.991 12.5-2 4.557.009 8.724.675 12.5 2z"/><path style="opacity:1" fill="#c2c2c2" d="M404.5 166.5h25c21.549 2.989 40.215 12.156 56 27.5a8.43 8.43 0 0 0 4 .5 8.43 8.43 0 0 0 .5 4c26.719 31.641 32.719 66.974 18 106-15.241 31.204-39.741 50.87-73.5 59a148.196 148.196 0 0 0 29 21h-93a399.344 399.344 0 0 1 22-17.5c2.297-1.263 3.13-3.097 2.5-5.5-29.786-7.109-52.12-24.109-67-51-14.377-31.718-13.877-63.218 1.5-94.5a93.18 93.18 0 0 1 9.5-12.5 8.43 8.43 0 0 0 .5-4c3.333 0 5-1.667 5-5 3.333 0 5-1.667 5-5 1.808.009 3.475-.491 5-1.5 14.718-11.738 31.384-18.905 50-21.5z"/><path style="opacity:1" fill="#010101" d="M406.5 218.5c16.484-2.679 30.65 1.655 42.5 13 .483.948.649 1.948.5 3 1.89-.203 3.39.463 4.5 2 15.014 25.689 10.848 47.856-12.5 66.5-16.54 8.655-33.206 8.655-50 0a18.839 18.839 0 0 0-6.5-5.5 4.934 4.934 0 0 1-.5-3 4.934 4.934 0 0 1-3-.5c-10.78-12.641-13.947-27.141-9.5-43.5 6.295-16.468 17.795-27.134 34.5-32z"/><path style="opacity:1" fill="#0d0d0c" d="M370.5 384.5h93c3.301.292 5.301 1.959 6 5h15v5h-140v-5c6.675.166 13.342 0 20-.5a32.324 32.324 0 0 1 6-4.5z"/><path style="opacity:1" fill="#c2c3c2" d="M344.5 394.5h145v25h-151v-25h6zM289.5 424.5h250v25h-250v-25zM338.5 459.5c.332 136.737-.002 273.403-1 410h-83v-375a72.367 72.367 0 0 1 .5-12 984.532 984.532 0 0 1 19.5-22.5c21.331-.5 42.664-.667 64-.5z"/><path style="opacity:1" fill="#928f8c" d="M338.5 459.5c.667 68.166 1 136.499 1 205 0 68.67-.667 137.003-2 205a42120.135 42120.135 0 0 0 1-410z"/><path style="opacity:1" fill="#c2c3c2" d="M344.5 459.5h140v410h-140v-410z"/><path style="opacity:1" fill="#413f3c" d="M491.5 459.5a42120.135 42120.135 0 0 0-1 410c-.667-68.166-1-136.499-1-205 0-68.67.667-137.003 2-205z"/><path style="opacity:1" fill="#c3c3c3" d="M491.5 459.5c19.669-.167 39.336 0 59 .5a829.64 829.64 0 0 1 24 24.5v385h-84c-.332-136.737.002-273.403 1-410z"/><path style="opacity:1" fill="#0d0d0c" d="M574.5 484.5a25.14 25.14 0 0 1 4.5 4c.5 127 .667 254 .5 381h-5v-385zM254.5 494.5v375h-5v-375h5z"/><path style="opacity:1" fill="#b5b1af" d="M-.5 589.5c1.29 3.142 2.29 6.475 3 10l-3-2v-8z"/><path style="opacity:1" fill="#fefefe" d="m-.5 597.5 3 2a159.384 159.384 0 0 1 3 15c.4 3.616 1.4 6.95 3 10a124.236 124.236 0 0 0 3 15c.428 3.285 1.428 6.285 3 9a1512.746 1512.746 0 0 0 16.5 51 1323.778 1323.778 0 0 1 20.5 44c.825.886 1.825 1.219 3 1a18.437 18.437 0 0 0 .5 6 544.98 544.98 0 0 0 33 47l34 40a375.989 375.989 0 0 0 23.5 21.5 8.43 8.43 0 0 0 4 .5 4.934 4.934 0 0 0 .5 3 559.15 559.15 0 0 1 15.5 13.5 3016.16 3016.16 0 0 0 64 38.5c1.465 1.237 3.132 2.237 5 3 30.632 14.335 62.632 25.002 96 32 4.389 1.746 9.056 2.746 14 3a136 136 0 0 0 20 2c4.79 1.225 9.79 1.892 15 2 4.209.516 8.209 1.516 12 3H-.5v-362zM829.5 597.5v362h-381c0-.667.333-1 1-1a533.82 533.82 0 0 0 19-4c7.05-.675 14.05-1.675 21-3 3.189-.358 6.189-1.025 9-2a18.453 18.453 0 0 0 6-.5 634.797 634.797 0 0 0 89-30c7.963-4.316 15.963-8.65 24-13a33144.509 33144.509 0 0 0 63-43c23.325-21.985 45.159-45.152 65.5-69.5a1213.562 1213.562 0 0 1 26-39l26-52c12.474-34.573 22.974-69.573 31.5-105z"/><path style="opacity:1" fill="#5d5957" d="M5.5 614.5c1.91 2.952 2.91 6.286 3 10-1.6-3.05-2.6-6.384-3-10z"/><path style="opacity:1" fill="#565250" d="M11.5 639.5c2.35 2.341 3.35 5.341 3 9-1.572-2.715-2.572-5.715-3-9z"/><path style="opacity:1" fill="#6b6864" d="M229.5 914.5h5v3c-1.868-.763-3.535-1.763-5-3z"/><path style="opacity:1" fill="#363332" d="M330.5 949.5h14v3c-4.944-.254-9.611-1.254-14-3z"/><path style="opacity:1" fill="#55514f" d="M498.5 949.5c-2.811.975-5.811 1.642-9 2 2.488-1.888 5.488-2.555 9-2z"/><path style="opacity:1" fill="#494644" d="M364.5 954.5c5.444-.608 10.444.058 15 2-5.21-.108-10.21-.775-15-2z"/><path style="opacity:1" fill="#4d4a48" d="M468.5 954.5a533.82 533.82 0 0 1-19 4v-4h19z"/></svg>

<?xml version="1.0" encoding="UTF-8"?>
<!DOCTYPE svg PUBLIC "-//W3C//DTD SVG 1.1//EN" "http://www.w3.org/Graphics/SVG/1.1/DTD/svg11.dtd">
<svg xmlns="http://www.w3.org/2000/svg" version="1.1" width="830px" height="960px" style="shape-rendering:geometricPrecision; text-rendering:geometricPrecision; image-rendering:optimizeQuality; fill-rule:evenodd; clip-rule:evenodd" xmlns:xlink="http://www.w3.org/1999/xlink">
<g><path style="opacity:1" fill="#0e0d0d" d="M -0.5,-0.5 C 1.16667,-0.5 2.83333,-0.5 4.5,-0.5C 4.66667,190.834 4.5,382.167 4,573.5C 3.41146,571.137 1.91146,570.137 -0.5,570.5C -0.5,380.167 -0.5,189.833 -0.5,-0.5 Z"/></g>
<g><path style="opacity:1" fill="#000000" d="M 4.5,-0.5 C 279.5,-0.5 554.5,-0.5 829.5,-0.5C 829.5,198.833 829.5,398.167 829.5,597.5C 820.974,632.927 810.474,667.927 798,702.5C 789.333,719.833 780.667,737.167 772,754.5C 763.085,767.328 754.419,780.328 746,793.5C 725.659,817.848 703.825,841.015 680.5,863C 659.453,877.401 638.453,891.734 617.5,906C 609.463,910.35 601.463,914.684 593.5,919C 564.594,931.191 534.927,941.191 504.5,949C 502.527,949.495 500.527,949.662 498.5,949.5C 494.988,948.945 491.988,949.612 489.5,951.5C 482.55,952.825 475.55,953.825 468.5,954.5C 462.167,954.5 455.833,954.5 449.5,954.5C 449.5,955.833 449.5,957.167 449.5,958.5C 448.833,958.5 448.5,958.833 448.5,959.5C 429.5,959.5 410.5,959.5 391.5,959.5C 387.709,958.016 383.709,957.016 379.5,956.5C 374.944,954.558 369.944,953.892 364.5,954.5C 357.776,954.326 351.109,953.659 344.5,952.5C 344.5,951.5 344.5,950.5 344.5,949.5C 339.833,949.5 335.167,949.5 330.5,949.5C 297.132,942.502 265.132,931.835 234.5,917.5C 234.5,916.5 234.5,915.5 234.5,914.5C 232.833,914.5 231.167,914.5 229.5,914.5C 207.955,901.899 186.622,889.066 165.5,876C 160.376,871.37 155.209,866.87 150,862.5C 149.517,861.552 149.351,860.552 149.5,859.5C 148.127,859.657 146.793,859.49 145.5,859C 137.382,852.183 129.549,845.016 122,837.5C 110.667,824.167 99.3333,810.833 88,797.5C 76.088,782.291 65.088,766.624 55,750.5C 54.5045,748.527 54.3379,746.527 54.5,744.5C 53.325,744.719 52.325,744.386 51.5,743.5C 44.9236,728.682 38.0903,714.016 31,699.5C 25.1912,682.574 19.6912,665.574 14.5,648.5C 14.8506,644.841 13.8506,641.841 11.5,639.5C 10.1728,634.466 9.17278,629.466 8.5,624.5C 8.40975,620.786 7.40975,617.452 5.5,614.5C 4.74528,609.478 3.74528,604.478 2.5,599.5C 1.79029,595.975 0.790294,592.642 -0.5,589.5C -0.5,583.167 -0.5,576.833 -0.5,570.5C 1.91146,570.137 3.41146,571.137 4,573.5C 4.5,382.167 4.66667,190.834 4.5,-0.5 Z"/></g>
<g><path style="opacity:1" fill="#0b121e" d="M 403.5,19.5 C 275.5,19.5 147.5,19.5 19.5,19.5C 19.5,17.8333 19.5,16.1667 19.5,14.5C 149.5,14.5 279.5,14.5 409.5,14.5C 409.662,16.5273 409.495,18.5273 409,20.5C 407.301,19.5939 405.467,19.2606 403.5,19.5 Z"/></g>
<g><path style="opacity:1" fill="#0b121e" d="M 809.5,19.5 C 681.5,19.5 553.5,19.5 425.5,19.5C 425.579,18.0695 425.246,16.7362 424.5,15.5C 552.832,14.5 681.165,14.1667 809.5,14.5C 809.5,16.1667 809.5,17.8333 809.5,19.5 Z"/></g>
<g><path style="opacity:1" fill="#024cc4" d="M 19.5,19.5 C 147.5,19.5 275.5,19.5 403.5,19.5C 283.093,231.003 162.76,442.336 42.5,653.5C 41.675,654.386 40.675,654.719 39.5,654.5C 39.7852,656.288 39.4519,657.955 38.5,659.5C 31.5221,633.126 25.3555,606.46 20,579.5C 19.5,392.834 19.3333,206.167 19.5,19.5 Z"/></g>
<g><path style="opacity:1" fill="#014cc4" d="M 425.5,19.5 C 553.5,19.5 681.5,19.5 809.5,19.5C 809.5,201.167 809.5,382.833 809.5,564.5C 809.838,574.883 809.338,585.216 808,595.5C 802.409,615.608 796.409,635.608 790,655.5C 668.712,443.242 547.212,231.242 425.5,19.5 Z"/></g>
<g><path style="opacity:1" fill="#0a111d" d="M 809.5,19.5 C 811.167,19.5 812.833,19.5 814.5,19.5C 814.5,201.167 814.5,382.833 814.5,564.5C 812.833,564.5 811.167,564.5 809.5,564.5C 809.5,382.833 809.5,201.167 809.5,19.5 Z"/></g>
<g><path style="opacity:1" fill="#413f3c" d="M 429.5,166.5 C 421.167,166.5 412.833,166.5 404.5,166.5C 408.276,165.175 412.443,164.509 417,164.5C 421.557,164.509 425.724,165.175 429.5,166.5 Z"/></g>
<g><path style="opacity:1" fill="#c2c2c2" d="M 404.5,166.5 C 412.833,166.5 421.167,166.5 429.5,166.5C 451.049,169.489 469.715,178.656 485.5,194C 486.793,194.49 488.127,194.657 489.5,194.5C 489.343,195.873 489.51,197.207 490,198.5C 516.719,230.141 522.719,265.474 508,304.5C 492.759,335.704 468.259,355.37 434.5,363.5C 443.355,371.699 453.022,378.699 463.5,384.5C 432.5,384.5 401.5,384.5 370.5,384.5C 377.582,378.445 384.915,372.612 392.5,367C 394.797,365.737 395.63,363.903 395,361.5C 365.214,354.391 342.88,337.391 328,310.5C 313.623,278.782 314.123,247.282 329.5,216C 332.293,211.595 335.46,207.428 339,203.5C 339.49,202.207 339.657,200.873 339.5,199.5C 342.833,199.5 344.5,197.833 344.5,194.5C 347.833,194.5 349.5,192.833 349.5,189.5C 351.308,189.509 352.975,189.009 354.5,188C 369.218,176.262 385.884,169.095 404.5,166.5 Z"/></g>
<g><path style="opacity:1" fill="#010101" d="M 406.5,218.5 C 422.984,215.821 437.15,220.155 449,231.5C 449.483,232.448 449.649,233.448 449.5,234.5C 451.39,234.297 452.89,234.963 454,236.5C 469.014,262.189 464.848,284.356 441.5,303C 424.96,311.655 408.294,311.655 391.5,303C 389.748,300.666 387.581,298.833 385,297.5C 384.517,296.552 384.351,295.552 384.5,294.5C 383.448,294.649 382.448,294.483 381.5,294C 370.72,281.359 367.553,266.859 372,250.5C 378.295,234.032 389.795,223.366 406.5,218.5 Z"/></g>
<g><path style="opacity:1" fill="#0d0d0c" d="M 370.5,384.5 C 401.5,384.5 432.5,384.5 463.5,384.5C 466.801,384.792 468.801,386.459 469.5,389.5C 474.5,389.5 479.5,389.5 484.5,389.5C 484.5,391.167 484.5,392.833 484.5,394.5C 437.833,394.5 391.167,394.5 344.5,394.5C 344.5,392.833 344.5,391.167 344.5,389.5C 351.175,389.666 357.842,389.5 364.5,389C 366.351,387.248 368.351,385.748 370.5,384.5 Z"/></g>
<g><path style="opacity:1" fill="#c2c3c2" d="M 344.5,394.5 C 391.167,394.5 437.833,394.5 484.5,394.5C 486.167,394.5 487.833,394.5 489.5,394.5C 489.5,402.833 489.5,411.167 489.5,419.5C 439.167,419.5 388.833,419.5 338.5,419.5C 338.5,411.167 338.5,402.833 338.5,394.5C 340.5,394.5 342.5,394.5 344.5,394.5 Z"/></g>
<g><path style="opacity:1" fill="#c2c3c2" d="M 289.5,424.5 C 372.833,424.5 456.167,424.5 539.5,424.5C 539.5,432.833 539.5,441.167 539.5,449.5C 456.167,449.5 372.833,449.5 289.5,449.5C 289.5,441.167 289.5,432.833 289.5,424.5 Z"/></g>
<g><path style="opacity:1" fill="#c2c3c2" d="M 338.5,459.5 C 338.832,596.237 338.498,732.903 337.5,869.5C 309.833,869.5 282.167,869.5 254.5,869.5C 254.5,744.5 254.5,619.5 254.5,494.5C 254.334,490.486 254.501,486.486 255,482.5C 261.382,474.907 267.882,467.407 274.5,460C 295.831,459.5 317.164,459.333 338.5,459.5 Z"/></g>
<g><path style="opacity:1" fill="#928f8c" d="M 338.5,459.5 C 339.167,527.666 339.5,595.999 339.5,664.5C 339.5,733.17 338.833,801.503 337.5,869.5C 338.498,732.903 338.832,596.237 338.5,459.5 Z"/></g>
<g><path style="opacity:1" fill="#c2c3c2" d="M 344.5,459.5 C 391.167,459.5 437.833,459.5 484.5,459.5C 484.5,596.167 484.5,732.833 484.5,869.5C 437.833,869.5 391.167,869.5 344.5,869.5C 344.5,732.833 344.5,596.167 344.5,459.5 Z"/></g>
<g><path style="opacity:1" fill="#413f3c" d="M 491.5,459.5 C 490.502,596.097 490.168,732.763 490.5,869.5C 489.833,801.334 489.5,733.001 489.5,664.5C 489.5,595.83 490.167,527.497 491.5,459.5 Z"/></g>
<g><path style="opacity:1" fill="#c3c3c3" d="M 491.5,459.5 C 511.169,459.333 530.836,459.5 550.5,460C 558.702,468.035 566.702,476.202 574.5,484.5C 574.5,612.833 574.5,741.167 574.5,869.5C 546.5,869.5 518.5,869.5 490.5,869.5C 490.168,732.763 490.502,596.097 491.5,459.5 Z"/></g>
<g><path style="opacity:1" fill="#0d0d0c" d="M 574.5,484.5 C 576.129,485.625 577.629,486.959 579,488.5C 579.5,615.5 579.667,742.5 579.5,869.5C 577.833,869.5 576.167,869.5 574.5,869.5C 574.5,741.167 574.5,612.833 574.5,484.5 Z"/></g>
<g><path style="opacity:1" fill="#0d0d0c" d="M 254.5,494.5 C 254.5,619.5 254.5,744.5 254.5,869.5C 252.833,869.5 251.167,869.5 249.5,869.5C 249.5,744.5 249.5,619.5 249.5,494.5C 251.167,494.5 252.833,494.5 254.5,494.5 Z"/></g>
<g><path style="opacity:1" fill="#b5b1af" d="M -0.5,589.5 C 0.790294,592.642 1.79029,595.975 2.5,599.5C 1.5,598.833 0.5,598.167 -0.5,597.5C -0.5,594.833 -0.5,592.167 -0.5,589.5 Z"/></g>
<g><path style="opacity:1" fill="#fefefe" d="M -0.5,597.5 C 0.5,598.167 1.5,598.833 2.5,599.5C 3.74528,604.478 4.74528,609.478 5.5,614.5C 5.89934,618.116 6.89934,621.45 8.5,624.5C 9.17278,629.466 10.1728,634.466 11.5,639.5C 11.9281,642.785 12.9281,645.785 14.5,648.5C 19.6912,665.574 25.1912,682.574 31,699.5C 38.0903,714.016 44.9236,728.682 51.5,743.5C 52.325,744.386 53.325,744.719 54.5,744.5C 54.3379,746.527 54.5045,748.527 55,750.5C 65.088,766.624 76.088,782.291 88,797.5C 99.3333,810.833 110.667,824.167 122,837.5C 129.549,845.016 137.382,852.183 145.5,859C 146.793,859.49 148.127,859.657 149.5,859.5C 149.351,860.552 149.517,861.552 150,862.5C 155.209,866.87 160.376,871.37 165.5,876C 186.622,889.066 207.955,901.899 229.5,914.5C 230.965,915.737 232.632,916.737 234.5,917.5C 265.132,931.835 297.132,942.502 330.5,949.5C 334.889,951.246 339.556,952.246 344.5,952.5C 351.109,953.659 357.776,954.326 364.5,954.5C 369.29,955.725 374.29,956.392 379.5,956.5C 383.709,957.016 387.709,958.016 391.5,959.5C 260.833,959.5 130.167,959.5 -0.5,959.5C -0.5,838.833 -0.5,718.167 -0.5,597.5 Z"/></g>
<g><path style="opacity:1" fill="#fefefe" d="M 829.5,597.5 C 829.5,718.167 829.5,838.833 829.5,959.5C 702.5,959.5 575.5,959.5 448.5,959.5C 448.5,958.833 448.833,958.5 449.5,958.5C 455.946,957.263 462.28,955.93 468.5,954.5C 475.55,953.825 482.55,952.825 489.5,951.5C 492.689,951.142 495.689,950.475 498.5,949.5C 500.527,949.662 502.527,949.495 504.5,949C 534.927,941.191 564.594,931.191 593.5,919C 601.463,914.684 609.463,910.35 617.5,906C 638.453,891.734 659.453,877.401 680.5,863C 703.825,841.015 725.659,817.848 746,793.5C 754.419,780.328 763.085,767.328 772,754.5C 780.667,737.167 789.333,719.833 798,702.5C 810.474,667.927 820.974,632.927 829.5,597.5 Z"/></g>
<g><path style="opacity:1" fill="#5d5957" d="M 5.5,614.5 C 7.40975,617.452 8.40975,620.786 8.5,624.5C 6.89934,621.45 5.89934,618.116 5.5,614.5 Z"/></g>
<g><path style="opacity:1" fill="#565250" d="M 11.5,639.5 C 13.8506,641.841 14.8506,644.841 14.5,648.5C 12.9281,645.785 11.9281,642.785 11.5,639.5 Z"/></g>
<g><path style="opacity:1" fill="#6b6864" d="M 229.5,914.5 C 231.167,914.5 232.833,914.5 234.5,914.5C 234.5,915.5 234.5,916.5 234.5,917.5C 232.632,916.737 230.965,915.737 229.5,914.5 Z"/></g>
<g><path style="opacity:1" fill="#363332" d="M 330.5,949.5 C 335.167,949.5 339.833,949.5 344.5,949.5C 344.5,950.5 344.5,951.5 344.5,952.5C 339.556,952.246 334.889,951.246 330.5,949.5 Z"/></g>
<g><path style="opacity:1" fill="#55514f" d="M 498.5,949.5 C 495.689,950.475 492.689,951.142 489.5,951.5C 491.988,949.612 494.988,948.945 498.5,949.5 Z"/></g>
<g><path style="opacity:1" fill="#494644" d="M 364.5,954.5 C 369.944,953.892 374.944,954.558 379.5,956.5C 374.29,956.392 369.29,955.725 364.5,954.5 Z"/></g>
<g><path style="opacity:1" fill="#4d4a48" d="M 468.5,954.5 C 462.28,955.93 455.946,957.263 449.5,958.5C 449.5,957.167 449.5,955.833 449.5,954.5C 455.833,954.5 462.167,954.5 468.5,954.5 Z"/></g>
</svg>
